X:1
T:Nagoya, 99.99.99
T:Nagoya, 99.99.99
T:John Robson Sweney, 1881
T:Public Domain Courtesy of the Cyber Hymnal™
C:John Robson Sweney, 1881
Z:Public Domain
Z:Courtesy of the Cyber Hymnal™
%%score ( 1 2 ) ( 3 4 )
L:1/8
Q:1/4=75
M:3/8
K:Eb
V:1 treble 
V:2 treble 
V:3 bass 
V:4 bass 
V:1
 [EG][GB][Ge] | ([Ge]/[Fd]/) [FA]2 | [DF][FA][Bd] | [Ac] [GB]2 | [GB][FA][EG] | (G/F/) [A,C]2 | %6
 [B,D][DA][B,D] | [B,E]2 z | [DF][DF][DB] | [DB] [C=A]2 | [Ge][EG][F=A] | [EG] [DF]2 | %12
 [DF][DB][Fd] | ([Af]/[Ge]/) [EG]2 | [C=A][DB][Ec] | (!fermata![DB]!fermata![E=A]!fermata![F_A]) | %16
 [EG][GB][Ge] | [Ge]/[Fd]/ [FA]2 | [DF][FA][Bd] | [Ac] [GB]2 | [GB][FA][EG] | G/F/ C2 | %22
 [B,D][DA][B,D] | [B,E]2 z |] %24
V:2
 x3 | x3 | x3 | x3 | x3 | E x2 | x3 | x3 | x3 | x3 | x3 | x3 | x3 | x3 | x3 | x3 | x3 | x3 | x3 | %19
 x3 | x3 | E C2 | x3 | x3 |] %24
V:3
 E,[G,B,][G,B,] | B,, (B,B,) | B,,B,B, | (E,G,B,) | [E,E][F,B,][G,B,] | [A,C] (A,,E,) | B,,F,B,, | %7
 E,2 z | B,,B,B, | F,, (F,F,) | F,,F,F, | B,, (B,B,) | B,,F,A, | E, (B,B,) | F,[F,,F,][F,,F,] | %15
 (!fermata![B,,F,]!fermata!C,!fermata!D,) | [E,B,][E,E][E,B,] | B, B,2 | [B,,B,][B,,B,][B,,B,] | %19
 B, E2 | [E,E][F,B,][G,B,] | [A,C] [A,,E,]2 | [B,,A,][B,,F,][B,,A,] | [E,G,]2 z |] %24
V:4
 x3 | x3 | x3 | x3 | x3 | x3 | x3 | x3 | x3 | x3 | x3 | x3 | x3 | x3 | x3 | x3 | x3 | B, B,2 | x3 | %19
 E,3 | x3 | x3 | x3 | x3 |] %24

